X:791
T:Slieve Russel
R:Jig
O:Ireland
S:Music from Ireland Vol. 3
B:Music from Ireland Vol. 3
Z:Transcription, slight arr., chords:Mike Long
M:6/8
L:1/8
K:G
"Am"eAA Bcd|"Am"eaf "G"ged|"Em"edB c2c|"G"BAG Bcd|\
"Am"eAA Bcd|"Am"eaf "G"ged|"Em"edB "(F)"c2c|"G"BAG "Am"A3:|
|:"Am"eaa efg|"D"agf "G"ged|"Am"eaa efg|"D"fed "Am"e2d|\
"Am"eaa efg|"D"agf "G"ged|"Em"edB "(F)"c2c|"G"BAG "Am"A3:|
